X:7886
T:Walter Bulwer's No 2
O:england
M:4/4
L:1/8
K:G
|:D2G2G2FG|A2E2E4|FG A2AB A2|B2G2G3E|
D2G2G2FG|A2E2E4|FG A2D2EF|G2G2G4:|
|:A2A2B4|A2A2F4|G2G2EF G2|A2A2FG A2|
A2A2B4|A2A2F4|G2G2EGFE|D2F2D4:|


